X:1
T:Comitato d'Amore
C:The Committee of Love headed by James Blackcloak
P:AABB x 4
K:G dorian
M:3/4
L:1/8
P:A
"Gm"G4G2 | "F"A3GA2 | "Bb"B6 | B4d2 | "F"c4B2 | A3GA2 | "Bb"B6 | B6 |\
"Gm"G4G2 | "F"A3GA2 | "Bb"B6 | B4d2 | 
"F"c4B2 | "D"A3G^F2 | "Gm"G6 | G4D2 ::\
P:B
"C"E3^FG2 | "D"^F3EF2 | "Gm"G3AB2 | B2A2G2 | "C"E3^FG2 | "D"^F3EF2 | "Gm"G6 | G6 :|

